lib/functional/system&devices/key-return.svg

<svg xmlns="http://www.w3.org/2000/svg" fill="none" stroke="currentColor" aria-hidden="true" viewBox="0 0 32 32"><g id="Icon-KeyReturn"><g clip-path="url(#clip0_9_488)"><g id="size=md (32px)"><g id="KeyReturn"><path id="Vector" stroke-linecap="round" stroke-linejoin="round" stroke-width="2" d="M22 13V17H10"/><path id="Vector_2" stroke-linecap="round" stroke-linejoin="round" stroke-width="2" d="M13 14L10 17L13 20"/><path id="Vector_3" stroke-linecap="round" stroke-linejoin="round" stroke-width="2" d="M27 6H5C4.44772 6 4 6.44772 4 7V25C4 25.5523 4.44772 26 5 26H27C27.5523 26 28 25.5523 28 25V7C28 6.44772 27.5523 6 27 6Z"/></g></g></g></g><defs><clipPath id="clip0_9_488"><rect width="32" height="32" fill="white" rx="5"/></clipPath></defs></svg>

<svg xmlns="http://www.w3.org/2000/svg" fill="none" stroke="currentColor" aria-hidden="true" viewBox="0 0 32 32"><g stroke="#101828" stroke-linecap="round" stroke-linejoin="round" stroke-width="2" clip-path="url(#a)"><path d="M22 13v4H10"/><path d="m13 14-3 3 3 3"/><path d="M27 6H5a1 1 0 0 0-1 1v18a1 1 0 0 0 1 1h22a1 1 0 0 0 1-1V7a1 1 0 0 0-1-1Z"/></g><defs><clipPath id="a"><rect width="32" height="32" fill="#fff" rx="5"/></clipPath></defs></svg>
